src/img/facebook_icon.svg

<svg width="40" height="40" viewBox="0 0 40 40" fill="none" xmlns="http://www.w3.org/2000/svg">
<rect x="0.5" y="0.5" width="38.6094" height="38.6094" stroke="#C6CBCD"/>
<path d="M20.7157 28.4344V20.1104H23.5239L23.9413 16.8512H20.7157V14.7753C20.7157 13.8348 20.9777 13.1909 22.3275 13.1909H24.0378V10.2852C23.2056 10.196 22.3692 10.153 21.5322 10.1562C19.05 10.1562 17.3458 11.6716 17.3458 14.4533V16.8451H14.5559V20.1043H17.3519V28.4344H20.7157Z" fill="#C6CBCD"/>
</svg>

<svg width="40" height="40" fill="none" xmlns="http://www.w3.org/2000/svg">
  <path stroke="#C6CBCD" d="M.5.5h38.61v38.61H.5z"/>
  <path d="M20.72 28.43v-8.32h2.8l.42-3.26h-3.22v-2.07c0-.95.26-1.59 1.6-1.59h1.72v-2.9a22.7 22.7 0 0 0-2.5-.13c-2.49 0-4.2 1.51-4.2 4.3v2.39h-2.78v3.25h2.8v8.33h3.36Z" fill="#C6CBCD"/>
</svg>
